X:210
T:Ashmolean House
M:C|
L:1/8
Q:200
C:Tommy Gunn
S:THSP
R:reel
Z:
K:D
"D"AF (3FFF EDB,A,|D2 (3FED FA (3AAA|d2fd efdB | "G"AFDE "A"FE E2 |
"D"AF (3FFF EDB,A,|D2 (3FED FA (3AAA|ABde dBAF | "A"A,CEG "D"FD D2 :|:
"D"defg a3 b | afdf "A"eB (3BAB | "D"defg a3 b |afdf "A"e3 g|
"D"fd (3ddd Ad (3ddd |edBd "G"egfe|"D"dBAF A3 F|"A"A,CEG "D"FD D2 :||
